assets/images/card/pdf.svg

<svg width="111" height="144" viewBox="0 0 111 144" fill="none" xmlns="http://www.w3.org/2000/svg">
<path d="M0.5 18.4065V143.5H110.5V0.5H17.9514L0.5 18.4065Z" stroke="#0029FF"/>
<path d="M7.62891 19.4285H20.2165V6.85712" stroke="#0029FF"/>
<path d="M45.958 73.0078V77H44.6934V67.0469H47.9199C48.3665 67.056 48.7881 67.1266 49.1846 67.2588C49.5856 67.391 49.9365 67.5824 50.2373 67.833C50.5381 68.0837 50.7751 68.3936 50.9482 68.7627C51.126 69.1318 51.2148 69.5557 51.2148 70.0342C51.2148 70.5127 51.126 70.9365 50.9482 71.3057C50.7751 71.6702 50.5381 71.9779 50.2373 72.2285C49.9365 72.4792 49.5856 72.6706 49.1846 72.8027C48.7881 72.9349 48.3665 73.0033 47.9199 73.0078H45.958ZM45.958 71.9688H47.9199C48.2116 71.9642 48.4805 71.9186 48.7266 71.832C48.9727 71.7409 49.1868 71.6133 49.3691 71.4492C49.5514 71.2852 49.6927 71.0869 49.793 70.8545C49.8978 70.6175 49.9502 70.3486 49.9502 70.0479C49.9502 69.7471 49.8978 69.4759 49.793 69.2344C49.6927 68.9928 49.5514 68.7878 49.3691 68.6191C49.1914 68.4505 48.9772 68.3206 48.7266 68.2295C48.4805 68.1383 48.2116 68.0905 47.9199 68.0859H45.958V71.9688ZM52.8555 77V67.0469H55.1592C55.8519 67.056 56.4694 67.1745 57.0117 67.4023C57.5586 67.6257 58.0189 67.9401 58.3926 68.3457C58.7708 68.7467 59.0579 69.2298 59.2539 69.7949C59.4544 70.3555 59.557 70.9775 59.5615 71.6611V72.3926C59.557 73.0762 59.4544 73.7005 59.2539 74.2656C59.0579 74.8262 58.7708 75.3092 58.3926 75.7148C58.0189 76.1159 57.5586 76.4303 57.0117 76.6582C56.4694 76.8815 55.8519 76.9954 55.1592 77H52.8555ZM54.1406 68.0859V75.9678H55.1592C55.6969 75.9632 56.1618 75.8698 56.5537 75.6875C56.9456 75.5007 57.2692 75.2477 57.5244 74.9287C57.7842 74.6097 57.9756 74.2337 58.0986 73.8008C58.2262 73.3678 58.2923 72.8984 58.2969 72.3926V71.6475C58.2923 71.1416 58.2262 70.6745 58.0986 70.2461C57.971 69.8132 57.7796 69.4395 57.5244 69.125C57.2692 68.806 56.9456 68.5553 56.5537 68.373C56.1618 68.1908 55.6969 68.0951 55.1592 68.0859H54.1406ZM66.9307 72.6045H62.7881V77H61.5098V67.0469H67.6211V68.127H62.7881V71.5312H66.9307V72.6045Z" fill="#0029FF"/>
</svg>

<svg width="111" height="144" fill="none" xmlns="http://www.w3.org/2000/svg"><path d="M.5 18.407V143.5h110V.5H17.951L.5 18.407z" stroke="#0029FF"/><path d="M7.629 19.428h12.587V6.858" stroke="#0029FF"/><path d="M45.958 73.008V77h-1.265v-9.953h3.227c.447.009.868.08 1.265.212.4.132.752.323 1.052.574.301.25.538.56.711.93.178.369.267.793.267 1.271 0 .479-.089.902-.267 1.272-.173.364-.41.672-.71.922a3.176 3.176 0 01-1.053.575c-.397.132-.819.2-1.265.205h-1.962zm0-1.04h1.962c.292-.004.56-.05.807-.136.246-.091.46-.219.642-.383a1.69 1.69 0 00.424-.594c.105-.237.157-.506.157-.807 0-.3-.052-.572-.157-.814a1.73 1.73 0 00-.424-.615 1.827 1.827 0 00-.642-.39 2.416 2.416 0 00-.807-.143h-1.962v3.883zM52.856 77v-9.953h2.303c.693.009 1.31.127 1.853.355a3.802 3.802 0 011.38.944c.379.4.666.884.862 1.449.2.56.303 1.183.308 1.866v.732a5.682 5.682 0 01-.308 1.873 4.06 4.06 0 01-.861 1.449 3.917 3.917 0 01-1.381.943c-.543.224-1.16.337-1.853.342h-2.303zm1.285-8.914v7.882h1.018c.538-.005 1.003-.098 1.395-.28a2.71 2.71 0 00.97-.76c.26-.318.452-.694.575-1.127a5.13 5.13 0 00.198-1.408v-.746a5.054 5.054 0 00-.198-1.4 3.185 3.185 0 00-.575-1.122 2.656 2.656 0 00-.97-.752c-.392-.182-.857-.278-1.395-.287h-1.018zm12.79 4.519h-4.143V77H61.51v-9.953h6.111v1.08h-4.833v3.404h4.143v1.073z" fill="#0029FF"/></svg>
